src/app/components/golos-ui/Icon/assets/complain_normal.svg

<?xml version="1.0" encoding="UTF-8"?>
<svg width="20px" height="20px" viewBox="0 0 20 20" version="1.1" xmlns="http://www.w3.org/2000/svg" xmlns:xlink="http://www.w3.org/1999/xlink">
    <!-- Generator: Sketch 51.2 (57519) - http://www.bohemiancoding.com/sketch -->
    <title>ic_complain_normal</title>
    <desc>Created with Sketch.</desc>
    <defs></defs>
    <g id="Symbols" stroke="none" stroke-width="1" fill="none" fill-rule="evenodd">
        <g id="ic_complain_normal" transform="translate(-2.000000, -2.000000)" fill="#333333" fill-rule="nonzero">
            <g transform="translate(2.000000, 2.000000)" id="Oval-3">
                <path d="M10,18.4 C14.6391919,18.4 18.4,14.6391919 18.4,10 C18.4,5.3608081 14.6391919,1.6 10,1.6 C5.3608081,1.6 1.6,5.3608081 1.6,10 C1.6,14.6391919 5.3608081,18.4 10,18.4 Z M10,20 C4.4771525,20 0,15.5228475 0,10 C0,4.4771525 4.4771525,0 10,0 C15.5228475,0 20,4.4771525 20,10 C20,15.5228475 15.5228475,20 10,20 Z M9.9894102,5.65342217 C9.5468204,5.65342217 9.18804435,6.00605479 9.18804435,6.441066 L9.18804435,10.9555168 C9.18804435,11.3903188 9.5468204,11.7429514 9.9894102,11.7429514 C10.4317339,11.7429514 10.79051,11.3903188 10.79051,10.9555168 L10.79051,6.441066 C10.79051,6.00605479 10.4319468,5.65342217 9.9894102,5.65342217 Z M9.9894102,12.7661719 C9.5468204,12.7661719 9.18804435,13.1188045 9.18804435,13.5537634 L9.18804435,14.0238705 C9.18804435,14.4588817 9.5468204,14.8115143 9.9894102,14.8115143 C10.4317339,14.8115143 10.79051,14.4588817 10.79051,14.0238705 L10.79051,13.5537634 C10.79051,13.1185953 10.4319468,12.7661719 9.9894102,12.7661719 Z"
                      fill="currentColor"></path>
            </g>
        </g>
    </g>
</svg>

<svg width="20" height="20" xmlns="http://www.w3.org/2000/svg"><path d="M10 18.4a8.4 8.4 0 1 0 0-16.8 8.4 8.4 0 0 0 0 16.8zm0 1.6C4.477 20 0 15.523 0 10S4.477 0 10 0s10 4.477 10 10-4.477 10-10 10zM9.99 5.653a.795.795 0 0 0-.802.788v4.515c0 .434.359.787.801.787a.794.794 0 0 0 .802-.787V6.44a.794.794 0 0 0-.802-.788zm0 7.113a.795.795 0 0 0-.802.788v.47c0 .435.359.788.801.788a.795.795 0 0 0 .802-.788v-.47a.794.794 0 0 0-.802-.788z" fill="currentColor" fill-rule="nonzero"/></svg>
